X: 39
M: none
L: 1/8
K: Am
E |\
c4 BA | B2 G2 EB ||\
e/e/e e2 c2 | d/d/d d2B2 |
c4 BA | B2 G2 EB |\
e/e/e e2 c2 | d/d/d d2 B2 |\
c/c/c B2 A2 | A/A/A A3 |]

